!!!SOCIAL_FUNCTION:	cheyenne war song
!!!PDT:	1936
!!!OTL: No_2_I_Might_Starve.krn
!!!REG: Oklahoma and Montana
!!!LANG: Tone
!!!LING_GROUP: Algonquin
**kern
*staff1
=1-
*clefF4
*k[b-e-a-d-g-]
*M3/4
2r
8r
16.f\LL
32c\JJk
=2
4f\
16f\LK
8e-\
16f\Jk
8d-\L
8B-\J
=3
*M2/4
8f\L
16e-\L
16f\JJ
8e-\L
8e-\J
=4
16f\LL
16e-\
16.e-\
32B-\JJk
8B-\L
8B-\J
=5
8B-\L
8B-\J
16B-\
16r
8B-\
=6
8B-\
8r
8.B-\L
16e-\Jk
=7!|:
8e-\L
16e-\L
16d-\JJ
16e-\
16r
16.f\LL
32d-\JJk
=8
*M5/8
8d-\L
16B-\L
16B-\J
8B-\
8B-\
8f\J
=9
*M2/4
8B-\L
8B-\J
8B-\L
8B-\J
=10
8F\L
16F\L
16E-\JJ
16F\LL
16F\J
8F\J
=11
*M3/4
8D-\L
8D-\J
16BB-/
16r
8E-\
16E-\LK
8.D-\J
=12
16F\LL
16F\J
8D-\J
8F\L
8D-\J
8BB-/L
8BB-/J
=13
*M2/4
8BB-/L
8BB-/J
8BB-/L
8BB-/J
=14
8BB-/L
8BB-/J
8BB-/L
8BB-/J
=15
4r
8.B-\L
16e-\Jk
==:|!
*-
